outputs/icons/maps/world_sharp.svg

<svg xmlns="http://www.w3.org/2000/svg" width="1200" height="1200" fill="none"><g clip-path="url(#a)"><path fill="#000" d="M599.5 100C323.5 100 100 324 100 600s223.5 500 499.5 500C876 1100 1100 876 1100 600S876 100 599.5 100M946 400H798.5c-16-62.5-39-122.5-69-178 92 31.5 168.5 95.5 216.5 178M600 202c41.5 60 74 126.5 95.5 198h-191c21.5-71.5 54-138 95.5-198M213 700c-8-32-13-65.5-13-100s5-68 13-100h169c-4 33-7 66-7 100s3 67 7 100zm41 100h147.5c16 62.5 39 122.5 69 178-92-31.5-168.5-95-216.5-178m147.5-400H254c48-83 124.5-146.5 216.5-178-30 55.5-53 115.5-69 178M600 998c-41.5-60-74-126.5-95.5-198h191c-21.5 71.5-54 138-95.5 198m117-298H483c-4.5-33-8-66-8-100s3.5-67.5 8-100h234c4.5 32.5 8 66 8 100s-3.5 67-8 100m12.5 278c30-55.5 53-115.5 69-178H946c-48 82.5-124.5 146.5-216.5 178M818 700c4-33 7-66 7-100s-3-67-7-100h169c8 32 13 65.5 13 100s-5 68-13 100z"/></g><defs><clipPath id="a"><path fill="#fff" d="M0 0h1200v1200H0z"/></clipPath></defs></svg>

<svg width="1200" height="1200" viewBox="0 0 1200 1200" fill="none" xmlns="http://www.w3.org/2000/svg"><g clip-path="url(#clip0_788_1746)"><path d="M599.5 100C323.5 100 100 324 100 600C100 876 323.5 1100 599.5 1100C876 1100 1100 876 1100 600C1100 324 876 100 599.5 100ZM946 400H798.5C782.5 337.5 759.5 277.5 729.5 222C821.5 253.5 898 317.5 946 400ZM600 202C641.5 262 674 328.5 695.5 400H504.5C526 328.5 558.5 262 600 202ZM213 700C205 668 200 634.5 200 600C200 565.5 205 532 213 500H382C378 533 375 566 375 600C375 634 378 667 382 700H213ZM254 800H401.5C417.5 862.5 440.5 922.5 470.5 978C378.5 946.5 302 883 254 800ZM401.5 400H254C302 317 378.5 253.5 470.5 222C440.5 277.5 417.5 337.5 401.5 400ZM600 998C558.5 938 526 871.5 504.5 800H695.5C674 871.5 641.5 938 600 998ZM717 700H483C478.5 667 475 634 475 600C475 566 478.5 532.5 483 500H717C721.5 532.5 725 566 725 600C725 634 721.5 667 717 700ZM729.5 978C759.5 922.5 782.5 862.5 798.5 800H946C898 882.5 821.5 946.5 729.5 978ZM818 700C822 667 825 634 825 600C825 566 822 533 818 500H987C995 532 1000 565.5 1000 600C1000 634.5 995 668 987 700H818Z" fill="#1D1E23"/></g><defs><clipPath id="clip0_788_1746"><path width="24" fill="white" d="M0 0H1200V1200H0V0z"/></clipPath></defs></svg>
